!!!OTL: 2119. St. Katharina.
!!!ARE: Europa, Mitteleuropa, Deutschland, Hessen, Dill - Kreis; Westerwald
!!!SCT: E2119A
!!!TXL: @@DE
!!!YEM: Copyright 1995, estate of Helmut Schaffrath.
**kern	**text
*ICvox	*
*M6/8	*
*k[f#]	*
*G:	*
!LO:TX:a:t=Ruhig. 	!
!LO:TX:a:t=Aus dem Dillkreis und Weſterwald. E. Wolfram, Naſſauiſche Volksl. 1894. Nr. 9.	!
{8d	Der
=1	=1
4b	Kai-
8a	-ſer
4g	und
8e	der
=2	=2
8e	Kö-
8d	-nig
8r	.
4r}	.
{8d	die
=3	=3
4a	hiel-
8d	-ten
4a	ei-
8cc	-nen
=4	=4
4.b	Rath
4r}	.
{8g	wohl
=5	=5
4g	um
8g	die
4ee	Ka-
8ee	-tha-
=6	=6
(4dd	-ri-
8b)	.
4g}	-na,
{8g	die
=7	=7
4d	al-
8d	-ler-
4dd	-ſchön-
8cc	-ſte
=8	=8
4.b	Magd.
4r}	.
==	==
!!!AGN: geistlich, Heiligen - Lied, Legende
!!!ONB: ESAC (Essen Associative Code) Database: ERK3
!!!AMT: compound duple
!!!AIN: vox
!!!EED: Helmut Schaffrath
!!!EEV: 1.0
!!!GTL: 4. Katholische Lieder: c) Heiligenlieder (Rufe und Legenden.)
!!!URL-scan: https://rosdok.uni-rostock.de/mcrviewer/recordIdentifier/rosdok_ppn745177999/iview2/phys_0814.iview2?x=188.96815741117916&y=2057.4452094063163&scale=0.7014306698522887&rotation=0&layout=singlePageLayout
!!!ENC: Anna Maria Matuszewska
!!!EEV: 2025/14/01
*-	*-
